assets/images/bottom_navigation_bar/home_off.svg

<svg width="21" height="20" viewBox="0 0 21 20" fill="none" xmlns="http://www.w3.org/2000/svg">
<path d="M17.5251 6.67498L12.0668 2.30831C11.0001 1.45831 9.33346 1.44997 8.27513 2.29997L2.8168 6.67498C2.03347 7.29998 1.55847 8.54997 1.72513 9.53331L2.77513 15.8166C3.0168 17.225 4.32513 18.3333 5.75013 18.3333H14.5835C15.9918 18.3333 17.3251 17.2 17.5668 15.8083L18.6168 9.52497C18.7668 8.54997 18.2918 7.29998 17.5251 6.67498ZM10.7918 15C10.7918 15.3416 10.5085 15.625 10.1668 15.625C9.82513 15.625 9.5418 15.3416 9.5418 15V12.5C9.5418 12.1583 9.82513 11.875 10.1668 11.875C10.5085 11.875 10.7918 12.1583 10.7918 12.5V15Z" fill="#370C0F"/>
</svg>

<svg xmlns="http://www.w3.org/2000/svg" width="21" height="20" fill="none"><path fill="#370C0F" d="m17.525 6.675-5.458-4.367C11 1.458 9.333 1.45 8.275 2.3L2.817 6.675C2.033 7.3 1.558 8.55 1.725 9.533l1.05 6.284c.242 1.408 1.55 2.516 2.975 2.516h8.834c1.408 0 2.741-1.133 2.983-2.525l1.05-6.283c.15-.975-.325-2.225-1.092-2.85ZM10.792 15a.63.63 0 0 1-.625.625.63.63 0 0 1-.625-.625v-2.5a.63.63 0 0 1 .625-.625.63.63 0 0 1 .625.625V15Z"/></svg>
